src/ngscopeclient/icons/scalable/filter-deskew.svg

<?xml version="1.0" encoding="UTF-8" standalone="no"?>
<!-- Created with Inkscape (http://www.inkscape.org/) -->

<svg
   width="128"
   height="64"
   viewBox="0 0 33.866666 16.933333"
   version="1.1"
   id="svg1"
   inkscape:version="1.3.1 (91b66b0783, 2023-11-16)"
   sodipodi:docname="filter-deskew.svg"
   inkscape:export-filename="filter-deskew.png"
   inkscape:export-xdpi="96"
   inkscape:export-ydpi="96"
   xmlns:inkscape="http://www.inkscape.org/namespaces/inkscape"
   xmlns:sodipodi="http://sodipodi.sourceforge.net/DTD/sodipodi-0.dtd"
   xmlns="http://www.w3.org/2000/svg"
   xmlns:svg="http://www.w3.org/2000/svg">
  <sodipodi:namedview
     id="namedview1"
     pagecolor="#ffffff"
     bordercolor="#000000"
     borderopacity="0.25"
     inkscape:showpageshadow="2"
     inkscape:pageopacity="0.0"
     inkscape:pagecheckerboard="0"
     inkscape:deskcolor="#d1d1d1"
     inkscape:document-units="px"
     inkscape:zoom="256"
     inkscape:cx="72.03125"
     inkscape:cy="62.669922"
     inkscape:window-width="1920"
     inkscape:window-height="1051"
     inkscape:window-x="-9"
     inkscape:window-y="-9"
     inkscape:window-maximized="1"
     inkscape:current-layer="layer1" />
  <defs
     id="defs1" />
  <g
     inkscape:label="Layer 1"
     inkscape:groupmode="layer"
     id="layer1">
    <path
       style="fill:none;stroke:#ec008c;stroke-width:1.06188;stroke-miterlimit:10;stroke-dasharray:none;stroke-opacity:1"
       d="M 0.29104167,8.4666667 H 33.602083"
       id="path2"
       sodipodi:nodetypes="cc" />
    <path
       style="fill:none;stroke:#00b9f2;stroke-width:1.04155;stroke-miterlimit:10;stroke-dasharray:none;stroke-opacity:1"
       d="M 0.75683747,8.4666723 C 1.3264446,7.3335751 1.8960527,6.2013077 2.4656708,5.1772719 3.035279,4.1532262 3.6048871,3.2393216 4.1744952,2.5216137 4.7441033,1.8039158 5.3137215,1.2844442 5.8833296,1.0113607 6.4529377,0.73828015 7.0225458,0.71333539 7.5921539,0.93748326 8.1617721,1.1616351 8.7313802,1.6360144 9.3009883,2.314209 c 0.5696081,0.6781946 1.1392667,1.5605045 1.7088347,2.5620841 0.569568,1.0015796 1.139236,2.121829 1.708804,3.2538265 0.569669,1.1319874 1.139236,2.2743534 1.708804,3.3186754 0.569669,1.044322 1.139237,1.988662 1.708905,2.744133 0.569568,0.755372 1.139236,1.319876 1.708804,1.640821 0.569568,0.321045 1.139237,0.396832 1.708805,0.221562 0.569668,-0.17527 1.139236,-0.602797 1.708804,-1.240589 0.569668,-0.637791 1.139236,-1.486247 1.708905,-2.463581 0.569568,-0.977433 1.139236,-2.083245 1.708804,-3.2120131 0.569568,-1.128718 1.139236,-2.2789823 1.708804,-3.3415515 0.569669,-1.0625692 1.139236,-2.0356037 1.708804,-2.827309 0.569669,-0.7917153 1.139237,-1.4000518 1.708905,-1.7683591 0.569568,-0.36830437 1.139236,-0.49473986 1.708804,-0.3686893 0.569568,0.12605155 1.139237,0.5058759 1.708805,1.1020045"
       title="sin(x)*2"
       id="path3" />
    <path
       style="fill:none;stroke:#ffea00;stroke-width:1.04385;stroke-miterlimit:10;stroke-dasharray:none;stroke-opacity:1"
       d="M 0.57650571,15.726093 C 1.1487179,15.356011 1.720931,14.745705 2.2931542,13.953157 2.8653673,13.160509 3.4375804,12.186019 4.0097935,11.123158 4.5820066,10.060196 5.1542298,8.9097221 5.7264429,7.7813012 6.2986561,6.6528703 6.8708692,5.5480619 7.4430823,4.5715326 8.0153055,3.5949934 8.5875186,2.7487127 9.1597317,2.1122153 9.7319448,1.4757178 10.304208,1.051013 10.876381,0.87717629 11.448553,0.70334261 12.020827,0.78203957 12.593,1.104366 c 0.572274,0.3223174 1.144446,0.889257 1.716619,1.6456363 0.572274,0.7563793 1.144446,1.7023283 1.71672,2.7470358 0.572173,1.0447176 1.144447,2.1874239 1.716619,3.3191838 0.572173,1.1317598 1.144447,2.2510541 1.716619,3.2518351 0.572274,1.000782 1.144447,1.881001 1.71662,2.557986 0.572273,0.676985 1.144446,1.148535 1.71672,1.371264 0.572172,0.222729 1.144446,0.194838 1.716619,-0.07957 0.572173,-0.274413 1.144446,-0.796447 1.716619,-1.515218 0.572274,-0.718671 1.144446,-1.63428 1.716619,-2.658754 0.572274,-1.024474 1.144447,-2.1572333 1.71672,-3.2901527 0.572173,-1.1329195 1.144447,-2.2645794 1.716619,-3.2876538 0.572173,-1.0230645 1.144447,-1.9356141 1.71662,-2.6517162"
       title="sin(x)*2"
       id="path4" />
  </g>
</svg>

<?xml version="1.0" encoding="UTF-8" standalone="no"?>
<!-- Created with Inkscape (http://www.inkscape.org/) -->

<svg
   width="128"
   height="64"
   viewBox="0 0 33.866666 16.933333"
   version="1.1"
   id="svg1"
   xmlns="http://www.w3.org/2000/svg"
   xmlns:svg="http://www.w3.org/2000/svg">
  <defs
     id="defs1" />
  <g
     id="layer1">
    <path
       style="fill:none;stroke:#ec008c;stroke-width:1.0623;stroke-miterlimit:10;stroke-dasharray:none;stroke-opacity:1"
       d="M 0.26458354,8.4666667 H 33.602083"
       id="path2" />
    <path
       style="fill:none;stroke:#00b9f2;stroke-width:1.03892;stroke-miterlimit:10;stroke-dasharray:none;stroke-opacity:1"
       d="M 0.784041 8.46667 C 1.35068 7.33338 1.91732 6.20092 2.48397 5.17671 C 3.05061 4.15249 3.61725 3.23843 4.18389 2.5206 C 4.75053 1.80278 5.31718 1.28322 5.88382 1.01009 C 6.45046 0.736963 7.0171 0.712014 7.58374 0.9362 C 8.15039 1.16039 8.71703 1.63485 9.28367 2.31316 C 9.85031 2.99147 10.417 3.87393 10.9836 4.87568 C 11.5502 5.87743 12.1169 6.99787 12.6835 8.13006 C 13.2502 9.26224 13.8168 10.4048 14.3834 11.4493 C 14.9501 12.4938 15.5167 13.4383 16.0834 14.1939 C 16.65 14.9494 17.2167 15.514 17.7833 15.835 C 18.3499 16.1561 18.9166 16.2319 19.4832 16.0566 C 20.0499 15.8813 20.6165 15.4537 21.1831 14.8158 C 21.7498 14.1779 22.3164 13.3293 22.8831 12.3518 C 23.4497 11.3742 24.0164 10.2682 24.583 9.13924 C 25.1496 8.01033 25.7163 6.85987 26.2829 5.79712 C 26.8496 4.73437 27.4162 3.76117 27.9828 2.96933 C 28.5495 2.17748 29.1161 1.56904 29.6828 1.20067 C 30.2494 0.832303 30.8161 0.705846 31.3827 0.831918 C 31.9493 0.957991 32.516 1.33788 33.0826 1.93411"
       title="sin(x)*2"
       id="path3" />
    <path
       style="fill:none;stroke:#ffea00;stroke-width:1.03892;stroke-miterlimit:10;stroke-dasharray:none;stroke-opacity:1"
       d="M 0.784041 15.7284 C 1.35068 15.3582 1.91732 14.7477 2.48397 13.9549 C 3.05061 13.162 3.61725 12.1872 4.18389 11.124 C 4.75053 10.0607 5.31718 8.90986 5.88382 7.78108 C 6.45046 6.65229 7.0171 5.54713 7.58374 4.57029 C 8.15039 3.59344 8.71703 2.74689 9.28367 2.11019 C 9.85031 1.47349 10.417 1.04865 10.9836 0.874758 C 11.5502 0.700869 12.1169 0.779591 12.6835 1.10202 C 13.2502 1.42444 13.8168 1.99156 14.3834 2.74818 C 14.9501 3.5048 15.5167 4.45105 16.0834 5.49609 C 16.65 6.54114 17.2167 7.68421 17.7833 8.81633 C 18.3499 9.94845 18.9166 11.0681 19.4832 12.0692 C 20.0499 13.0703 20.6165 13.9508 21.1831 14.628 C 21.7498 15.3052 22.3164 15.7769 22.8831 15.9997 C 23.4497 16.2225 24.0164 16.1946 24.583 15.9201 C 25.1496 15.6456 25.7163 15.1234 26.2829 14.4044 C 26.8496 13.6855 27.4162 12.7696 27.9828 11.7448 C 28.5495 10.72 29.1161 9.58688 29.6828 8.4536 C 30.2494 7.32032 30.8161 6.1883 31.3827 5.1649 C 31.9493 4.14151 32.516 3.22867 33.0826 2.51234"
       title="sin(x)*2"
       id="path4" />
  </g>
</svg>
